src/actions/22/folder-new.svg

<svg version="1.1" viewBox="0 0 22 22" xmlns="http://www.w3.org/2000/svg">
 <defs>
  <style id="current-color-scheme" type="text/css">.ColorScheme-Text { color:#363636; }</style>
 </defs>
 <path class="ColorScheme-Text" d="m16.5 11a3.5 3.5 0 0 0-3.5 3.5 3.5 3.5 0 0 0 3.5 3.5 3.5 3.5 0 0 0 3.5-3.5 3.5 3.5 0 0 0-3.5-3.5zm0 1c0.277 0 0.5 0.223 0.5 0.5v1.5h1.5c0.277 0 0.5 0.223 0.5 0.5s-0.223 0.5-0.5 0.5h-1.5v1.5c0 0.277-0.223 0.5-0.5 0.5s-0.5-0.223-0.5-0.5v-1.5h-1.5c-0.277 0-0.5-0.223-0.5-0.5s0.223-0.5 0.5-0.5h1.5v-1.5c0-0.277 0.223-0.5 0.5-0.5z" fill="currentColor"/>
 <path d="m4 3c-1.108 0-2 0.892-2 2v11c0 1.108 0.892 2 2 2h8v-1h-8c-0.554 0-1-0.446-1-1v-8h16v2h1v-4c0-1.108-0.892-2-2-2h-9.6289c-0.57985-0.0229-0.6047 0.076884-1.0391-0.35742-0.43381-0.43381-0.613-0.64213-1.332-0.64258h-2zm0 1h2c0.31116-1.7e-6 0.52033 1.414e-4 0.99805 0.4707 0.47877 0.47161 0.6388 0.5293 1 0.5293h10.002c0.554 0 1 0.446 1 1v1h-16v-2c0-0.554 0.446-1 1-1z" class="ColorScheme-Text" fill="currentColor"/>
</svg>

<svg xmlns="http://www.w3.org/2000/svg" viewBox="0 0 22 22">
    <defs>
        <style id="current-color-scheme" type="text/css">
            .ColorScheme-Text{color:#050505;opacity:.7}
        </style>
    </defs>
    <path fill="currentColor" d="M16.5 11a3.5 3.5 0 0 0-3.5 3.5 3.5 3.5 0 0 0 3.5 3.5 3.5 3.5 0 0 0 3.5-3.5 3.5 3.5 0 0 0-3.5-3.5zm0 1c.277 0 .5.223.5.5V14h1.5a.499.499 0 1 1 0 1H17v1.5a.499.499 0 1 1-1 0V15h-1.5a.499.499 0 1 1 0-1H16v-1.5c0-.277.223-.5.5-.5z" class="ColorScheme-Text"/>
    <path fill="currentColor" d="M4 3c-1.108 0-2 .892-2 2v11c0 1.108.892 2 2 2h8v-1H4c-.554 0-1-.446-1-1V8h16v2h1V6c0-1.108-.892-2-2-2H8.371c-.58-.023-.605.077-1.039-.357C6.898 3.209 6.719 3 6 3H4zm0 1h2c.311 0 .52 0 .998.47.479.472.639.53 1 .53H18c.554 0 1 .446 1 1v1H3V5c0-.554.446-1 1-1z" class="ColorScheme-Text"/>
</svg>
